X:1
T:Jugend-Lieder
T:Die Spröde
T:Jugend-Lieder
T:Mathilde Kralik
T:1. Die Spröde
T:Johann Wolfgang von Goethe
T:Creative Commons copyright waiver (CC0 1.0 Universal)
T:Creative Commons copyright waiver (CC0 1.0 Universal)
T:Creative Commons copyright waiver (CC0 1.0 Universal)
T:Creative Commons copyright waiver (CC0 1.0 Universal)
C:Mathilde Kralik
Z:Johann Wolfgang von Goethe
Z:Creative Commons copyright waiver (CC0 1.0 Universal)
%%score ( 1 2 ) { ( 3 4 ) | 5 }
L:1/8
Q:1/4=120
M:4/4
K:E
V:1 treble nm="Singstimme\nVoice"
V:2 treble 
V:3 treble nm="Piano"
V:4 treble 
V:5 bass 
V:1
"^Munter." z4 | z8 | z4!mf! e2 f2 | !>!d3 e c2 d2 | !>!B2 e2 G2 B2 | !>!A3 G F2 B2 | E2 z2 F2 F2 | %7
w: ||An dem|rein- sten Früh- lings-|mor- gen ging die|Schä- fe- rin und|sang, jung und|
"^cresc." (F2 c2) F2 F2 | (F2 e2) F2 F2 |!f! g3 e Bc Bc | B2 z2!p! B2 B2 | g3 e Bc Bc | %12
w: schön und oh- ne|Sor- gen, dass es|durch die Fel- * der *|klang, dass es|durch die Fel- * der *|
 B2!mf! B e GA GA | G2 z!p! B EF EF | E2 z2 z4 | z8 | z2 z!mf! B (ca) g f | %17
w: klang, durch die Fel- * der *|klang, ja durch die Fel- der|klang,||so la * la la|
 e d/ c/ d !^!f c !^!f B!f! !^!e | A B/ A/ G!mp! e B A/ G/ F z | z2 z!mf! e B A/ G/ F !>!B | %20
w: ra la la la la la la la la|la la la la la la la la la,|so la la la la la|
 E2 z2 z4 | z8 | z4!f! e2 f2 | d3 e c2 d2 | (B2 e2) G2 B2 |!>(! A3 G F2 B2!>)! | E2 z2!mf! F2 F2 | %27
w: la.||Thyr- sis|bot ihr für ein|Mäul- chen zwei, drei|Schäf- chen gleich am|Ort, schalk- haft|
 (F2"^dim." c2) F2"^rit."[Q:1/4=110] F2 |[Q:1/4=100] (!>!F2 e) z"^a tempo"[Q:1/4=120] F2 F2 | %29
w: blick- te sie ein|Weil- chen, doch sie|
!f! g3 e Bc Bc | B2 z2!p! B2 B2 |!p! g3 e Bc Bc | B2 z!p! e GA GA | G2 z!f! B EF EF | E2 z2 z4 | %35
w: sang und lach- * te *|fort, doch sie|sang und lach- * te *|fort, und lach- * te *|fort, sie sang und lach- te|fort,|
 z8 | z2 z!p! B (ca) g f | e d/ c/ d !^!f c !^!f B!mp! !^!e | A B/ A/ G!p! e B A/ G/ F z | %39
w: |so la * la la|ra la la la la la la la la|la la la la la la la la la|
 z2 z!f! e B A/ G/ F !>!B | E2 z2 z4 | z8 | z4!mf! e2 f2 |"^andrer is a poetic form\n" d3 e c2 d2 | %44
w: la la la la la la|la.||Und ein|an- drer bot ihr|
 B2 e2 G2 B2 | !>!A3 G F2 B2 | E2 z2 F2 F2 | F2 c2 F2 F2 | (F2 e2) F2 F2 |!f! g3 e Bc Bc | %50
w: Bän- der und ein|drit- ter bot sein|Herz; doch sie|treib mit Herz und|Bän- dern so wie|mit den Läm- * mern *|
 B2 z2!p! B2 B2 |!p! g3 e Bc Bc | B2 z!mf! e G A G A | G2 z!p! B E F E F | E2 z2 z4 | z8 | %56
w: Scherz, so wie|mit den Läm _ morn *|Scherz, wie mit den Läm- mern|Scherz wie mit den Läm- mern|Scherz,||
[Q:1/4=118] z2 z!f! B (ca) g f |!>(! e d/ c/ d !^!f c !^!f !breath!B!>)!!f!!f![Q:1/4=116] !^!e | %58
w: nur la * la la|ra la la la la la la la la|
 A"^fix\nduration\nV\nV\n" B/ A/ !breath!G!p![Q:1/4=100] e"^rall." B A/ G/ F z | %59
w: la la la la la la la la la|
[Q:1/4=110] z2 z!f![Q:1/4=124] B c d/ e/ f b | e2 z2 |] %61
w: la la la la la la|la.|
V:2
 x4 | x8 | x8 | x8 | x8 | x8 | x8 | x8 | x8 | x8 | x8 | x8 | x8 | x8 | x8 | x8 | x8 | x8 | x8 | %19
 x8 | x8 | x8 | x8 | x8 | x8 | x8 | x8 | x8 | x8 | x8 | x8 | x8 | x8 | x8 | x8 | x8 | x8 | x8 | %38
 x8 | x8 | x8 | x8 | x8 | x8 | x8 | x8 | x8 | x8 | x8 | x8 | x8 | x8 | x8 | x8 | x8 | x8 | x8 | %57
 x8 | x8 | x3 e B A/ G/ F !>!B | E2 x2 |] %61
V:3
!f! (e'2 f'2 | d'2 e'2!>(! c'2 c'2!>)! | =c'2 b2)!mf! (e2 f2 | d3 e c2 d2) | %4
 ([GB]E[Ge]E) z (C[EG]C) | z (A,[CF]A,) z (A,[DF]A,) | [G,E]B,!p!G,B, .[EF].C.[EF].C | %7
"_cresc." ([EF]C[EF]C) .[EF].C.[EF].C | ([EF]C[EF]C) .[EF].C.[EF].C |!f! z (B,[EG]B,) ([EG]B,) B2 | %10
 g3 (e!p! BcBc) | (BB,[EG]B, [EG]B,[DA]B,) |!f! ([EG]B,[EG]B, [EG]B,[DA]B,) | %13
!p! ([EG]B,[EG]B, [G,E]B,[A,D]B,) | (EGB)E .E.F.E.F | (EGB)E .E.F.E.F |!mf! [G,E]2 z2 z .C.D.E | %17
 .F.G.A.!^!e .A.!^!d.G.!^!c | .F.D.E .c [DA]2 z!p! .e' | %19
 .[db] (a/g/ f) .c!mf! [DA] z z !>![F,A,CD] | [G,B,E]2 z2!f! (e'2 f'2 | %21
!>(! d'2 e'2!>)!!mf! c'2 c'2 | =c'2 b2) (e2 f2 | d3 e c2 d2) | [GB]E[Ge]E z C[EG]C | %25
!>(! z A,[CF]A, z A,[DF]A,!>)! | ([G,E]B,G,B,)!mf! .[EF].C.[EF].C | %27
 ([EF]C"_dim."[EF]C) .[EF].C"^rit.".[EF].C | ([EF]C[EF]C)"^a tempo" .[EF].C.[EF].C | %29
!f! z (B,[EG]B,) ([EG]B,) B2 | g3 (e BcBc) |!p! BB,[EG]B, [EG]B,[DA]B, | %32
 EB,[EG]!p!B, [EG]B,[DA]B, | [EG]B,[EG]!f!B, [G,E]B,[A,D]B, | (EGB)E .E.F.E.F | (EGB)E .E.F.E.F | %36
 [G,E]2 z2!p! z .C.D.E | .F.G.A.!^!e .A.!^!d.G.!^!c | .F.D.E .c !tenuto![DA]2 z!pp! .e' | %39
 .[db] (a/g/ f)!f! c [DA] z z !>![F,A,CD] | [G,B,E]2 z2!f! (e'2 f'2 | d'2 e'2 c'2 c'2 | %42
 =c'2 b2)!mf! (e2 f2 | d3 e c2 d2) | ([GB]E[Ge]E) z C[EG]C | z A,[CF]A, z A,[DF]A, | %46
 [G,E]B,G,B, .[EF].C.[EF].C | ([EF]C[EF]C) .[EF].C.[EF].C | ([EF]C[EF]C) .[EF].C.[EF].C | %49
!f! z (B,[EG]B, [EG]B,) B2 | g3 e!p! BcBc | BB,[EG]B, [EG]B,[DA]B, | %52
 [EG]B,[EG]!mf!B, [EG]B,[DA]B, |!p! [EG]B,[EG]B, [G,E]B,[A,D]B, | (EGB)E .E.F.E.F | %55
 (EGB)E .E.F.E.F | [G,E]2 z2 z .C.D.E | .F.G.A.!^!e .A.!^!d.G.!^!c | %58
 .F.D.E!p! .c"^rall." !tenuto![DA]2 z!pp! .e' | .[db](a/g/ f)!f!"^a tempo" c [DA] z z !^![F,A,CD] | %60
 !^![G,B,E]2 z2 |] %61
V:4
 e'c'ba | d'bag c'ac'f- | fe-ed (ecBA) | (dBAG) (cAGF) | x8 | x8 | x8 | x8 | x8 | x8 | x8 | x8 | %12
 x8 | x8 | G, z z2 z2 [A,D]2 | G, z z2 z2 [A,D]2 | x8 | x8 | x8 | x8 | x4 e'c'ba | d'bag c'ac'f- | %22
 fe-ed (ecBA) | (dBAG) (cAGF) | x8 | x8 | x8 | x8 | x8 | x8 | x8 | x8 | x8 | x8 | %34
 G, z z2 z2 [A,D]2 | G, z z2 z2 [A,D]2 | x8 | x8 | x8 | x8 | x4 e'c'ba | d'bag c'!>(!ac'f- | %42
 fe-!>)!ed (ecBA) | (dBAG) (cAGF) | x8 | x8 | x8 | x8 | x8 | x8 | x8 | x8 | x8 | x8 | %54
 G, z z2 z2 [A,D]2 | G, z z2 z2 [A,D]2 | x8 | x8 | x8 | x8 | x4 |] %61
V:5
 z4 | z8 | z8 | z8 | [B,,,B,,]4 [C,,C,]2 z2 | [F,,F,]2 z2 [B,,,B,,]2 z2 | [E,,E,]2 z2 .A,,2 .A,,2 | %7
 ^A,,4 .[=A,,=A,]2 .[A,,A,]2 | [^A,,^A,]4 .[^A,,,^A,,]2 .[A,,,A,,]2 | [B,,,B,,]4 z2 ([D,A,]B,,) | %10
 B,,,[K:treble] (B,[EG]B,) ([EG]B,[DA]B,) | [EG] z z2 z2[K:bass] B,,2 | B,,8 | B,,6 B,,,2 | %14
 [E,,B,,]2 z2 z2 B,,2 | [E,,B,,]2 z2 z2 B,,2 | [E,,B,,]2 z2 [E,,E,]4- | [E,,E,]8- | %18
 [E,,E,]3 z B,,2[K:treble] z c | [B,A]2 z2[K:bass] B,, z z !>!B,, | [E,,B,,]2 z2 z4 | z8 | z8 | %23
 z8 | [B,,,B,,]4 [C,,C,]2 z2 | [F,,F,]2 z2 [B,,,B,,]2 z2 | [E,,E,]2 z2 A,,2 A,,2 | %27
 ^A,,4 .[=A,,=A,]2 .[A,,A,]2 | [^A,,^A,]4 .[^A,,,^A,,]2 .[A,,,A,,]2 | [B,,,B,,]4 z2 [D,A,]B,, | %30
 B,,,[K:treble]!p! (B,[EG]B,) ([EG]B,[DA]B,) | [EG] z z2 z2[K:bass] B,,2 | B,,,8 | B,,6 B,,,2 | %34
 [E,,B,,]2 z2 z2 B,,2 | [E,,B,,]2 z2 z2 B,,2 | [E,,B,,]2 z2 [E,,E,]4- | [E,,E,]8- | %38
 [E,,E,]3 z B,,2[K:treble] z .c | [B,A]2 z2[K:bass] B,, z z B,, | [E,,B,,]2 z2 z4 | z8 | z8 | z8 | %44
 [B,,,B,,]4 [C,,C,]2 z2 | [F,,F,]2 z2 [B,,,B,,]2 z2 | [E,,E,]2 z2 A,,2 A,,2 | %47
 ^A,,4 .[=A,,=A,]2 .[A,,A,]2 | [^A,,^A,]4 .[^A,,,^A,,]2 .[A,,,A,,]2 | [B,,,B,,]4 z2 ([D,A,]B,,) | %50
 B,,,[K:treble]!p! (B,[EG]B,) ([EG]B,[DA]B,) | [EG] z z2 z2[K:bass] B,,2 | B,,,8 | B,,6 B,,,2 | %54
 [E,,B,,]2 z2 z2 B,,2 | [E,,B,,]2 z2 z2 B,,2 | [E,,B,,]2 z2!f! [E,,E,]4- | [E,,E,]8- | %58
 [E,,E,]3 z B,,2[K:treble] z .c | [B,A]2 z2[K:bass] B,, z z !^!B,, | !^![E,,B,,]2 z2 |] %61

